!! 00000] TT[WS
!!!OTL: Jiefu huan xiaoyi
!!!ARE: Asia, China, Shanxi Lishi
!! Ethnic Group: Han
!! WII, 75 (1)
!!!SCT: J0509
!!!YEM: Copyright 1995, estate of Helmut Schaffrath.
**kern
*ICvox
*Ivox
*M2/4
*k[b-]
*F:
{8cc
8ff
8dd
8cc
=1
8ff
8dd
4cc
=2
8ff
8a
8cc
8g
=3
2f}
=4
{8cc
8cc
8dd
8ff
=5
8cc
8f
8g
8a
=6
8g
8d
8f
8g
=7
2c}
==
!!!AGN: Xiaodiao. Qingge
!!!ONB: ESAC (Essen Associative Code) Database: CHINA
!!!AMT: simple duple
!!!AIN: vox
!!!EED: Helmut Schaffrath
!!!EEV: 1.0
*-
